Tools/spectro/strange.cal
CAL    

DESCRIPTOR "Argyll Device Calibration Curves"
ORIGINATOR "Argyll synthcal"
CREATED "Mon Oct 24 16:55:04 2011"
KEYWORD "DEVICE_CLASS"
DEVICE_CLASS "DISPLAY"
KEYWORD "COLOR_REP"
COLOR_REP "RGB"

KEYWORD "RGB_I"
NUMBER_OF_FIELDS 4
BEGIN_DATA_FORMAT
RGB_I RGB_R RGB_G RGB_B 
END_DATA_FORMAT

NUMBER_OF_SETS 256
BEGIN_DATA
0.0000 0.0000 0.0000 0.0000 
3.9216e-003 5.6752e-005 0.011879 0.018606 
7.8431e-003 1.8439e-004 0.020682 0.030226 
0.011765 3.6735e-004 0.028607 0.040147 
0.015686 5.9908e-004 0.036009 0.049103 
0.019608 8.7544e-004 0.043047 0.057404 
0.023529 1.1935e-003 0.049807 0.065218 
0.027451 1.5511e-003 0.056344 0.072650 
0.031373 1.9464e-003 0.062696 0.079768 
0.035294 2.3779e-003 0.068891 0.086623 
0.039216 2.8443e-003 0.074949 0.093253 
0.043137 3.3446e-003 0.080888 0.099687 
0.047059 3.8778e-003 0.086719 0.10595 
0.050980 4.4431e-003 0.092453 0.11205 
0.054902 5.0396e-003 0.098100 0.11802 
0.058824 5.6668e-003 0.10367 0.12386 
0.062745 6.3239e-003 0.10916 0.12958 
0.066667 7.0104e-003 0.11458 0.13520 
0.070588 7.7258e-003 0.11995 0.14072 
0.074510 8.4696e-003 0.12525 0.14615 
0.078431 9.2413e-003 0.13049 0.15149 
0.082353 0.010040 0.13569 0.15675 
0.086275 0.010867 0.14083 0.16194 
0.090196 0.011720 0.14593 0.16706 
0.094118 0.012599 0.15099 0.17211 
0.098039 0.013504 0.15600 0.17710 
0.10196 0.014436 0.16097 0.18203 
0.10588 0.015392 0.16590 0.18690 
0.10980 0.016374 0.17080 0.19172 
0.11373 0.017380 0.17567 0.19649 
0.11765 0.018411 0.18049 0.20121 
0.12157 0.019467 0.18529 0.20588 
0.12549 0.020546 0.19006 0.21051 
0.12941 0.021650 0.19480 0.21509 
0.13333 0.022777 0.19950 0.21963 
0.13725 0.023927 0.20418 0.22414 
0.14118 0.025101 0.20884 0.22860 
0.14510 0.026298 0.21347 0.23303 
0.14902 0.027518 0.21807 0.23742 
0.15294 0.028760 0.22265 0.24177 
0.15686 0.030025 0.22720 0.24610 
0.16078 0.031312 0.23174 0.25039 
0.16471 0.032621 0.23625 0.25465 
0.16863 0.033953 0.24074 0.25888 
0.17255 0.035306 0.24521 0.26308 
0.17647 0.036681 0.24965 0.26725 
0.18039 0.038077 0.25408 0.27139 
0.18431 0.039495 0.25849 0.27551 
0.18824 0.040935 0.26288 0.27960 
0.19216 0.042395 0.26725 0.28366 
0.19608 0.043876 0.27161 0.28770 
0.20000 0.045378 0.27595 0.29172 
0.20392 0.046901 0.28027 0.29571 
0.20784 0.048445 0.28457 0.29968 
0.21176 0.050009 0.28886 0.30363 
0.21569 0.051594 0.29313 0.30755 
0.21961 0.053198 0.29738 0.31146 
0.22353 0.054824 0.30163 0.31534 
0.22745 0.056469 0.30585 0.31920 
0.23137 0.058134 0.31006 0.32304 
0.23529 0.059819 0.31426 0.32687 
0.23922 0.061523 0.31844 0.33067 
0.24314 0.063248 0.32261 0.33446 
0.24706 0.064992 0.32677 0.33822 
0.25098 0.066755 0.33091 0.34197 
0.25490 0.068538 0.33504 0.34570 
0.25882 0.070340 0.33916 0.34942 
0.26275 0.072162 0.34326 0.35312 
0.26667 0.074002 0.34736 0.35680 
0.27059 0.075862 0.35144 0.36046 
0.27451 0.077740 0.35551 0.36411 
0.27843 0.079638 0.35956 0.36774 
0.28235 0.081554 0.36361 0.37136 
0.28627 0.083489 0.36764 0.37496 
0.29020 0.085442 0.37167 0.37855 
0.29412 0.087415 0.37568 0.38213 
0.29804 0.089405 0.37968 0.38569 
0.30196 0.091414 0.38367 0.38923 
0.30588 0.093442 0.38765 0.39276 
0.30980 0.095487 0.39162 0.39628 
0.31373 0.097551 0.39559 0.39979 
0.31765 0.099633 0.39954 0.40328 
0.32157 0.10173 0.40348 0.40676 
0.32549 0.10385 0.40741 0.41022 
0.32941 0.10599 0.41133 0.41368 
0.33333 0.10814 0.41524 0.41712 
0.33725 0.11031 0.41915 0.42055 
0.34118 0.11250 0.42304 0.42396 
0.34510 0.11471 0.42693 0.42737 
0.34902 0.11693 0.43080 0.43076 
0.35294 0.11918 0.43467 0.43414 
0.35686 0.12144 0.43853 0.43752 
0.36078 0.12371 0.44238 0.44088 
0.36471 0.12601 0.44623 0.44422 
0.36863 0.12832 0.45006 0.44756 
0.37255 0.13065 0.45389 0.45089 
0.37647 0.13300 0.45770 0.45421 
0.38039 0.13536 0.46151 0.45751 
0.38431 0.13774 0.46532 0.46081 
0.38824 0.14014 0.46911 0.46410 
0.39216 0.14255 0.47290 0.46737 
0.39608 0.14499 0.47668 0.47064 
0.40000 0.14743 0.48045 0.47390 
0.40392 0.14990 0.48421 0.47715 
0.40784 0.15238 0.48797 0.48038 
0.41176 0.15488 0.49172 0.48361 
0.41569 0.15740 0.49546 0.48683 
0.41961 0.15993 0.49920 0.49004 
0.42353 0.16248 0.50293 0.49324 
0.42745 0.16505 0.50665 0.49644 
0.43137 0.16763 0.51037 0.49962 
0.43529 0.17023 0.51407 0.50279 
0.43922 0.17284 0.51778 0.50596 
0.44314 0.17547 0.52147 0.50912 
0.44706 0.17812 0.52516 0.51227 
0.45098 0.18079 0.52884 0.51541 
0.45490 0.18347 0.53252 0.51854 
0.45882 0.18616 0.53619 0.52167 
0.46275 0.18888 0.53985 0.52479 
0.46667 0.19161 0.54351 0.52789 
0.47059 0.19435 0.54716 0.53100 
0.47451 0.19711 0.55080 0.53409 
0.47843 0.19989 0.55444 0.53718 
0.48235 0.20268 0.55807 0.54025 
0.48627 0.20549 0.56170 0.54332 
0.49020 0.20832 0.56532 0.54639 
0.49412 0.21116 0.56894 0.54944 
0.49804 0.21402 0.57255 0.55249 
0.50196 0.21689 0.57615 0.55553 
0.50588 0.21978 0.57975 0.55857 
0.50980 0.22268 0.58334 0.56160 
0.51373 0.22560 0.58693 0.56462 
0.51765 0.22854 0.59051 0.56763 
0.52157 0.23149 0.59409 0.57064 
0.52549 0.23445 0.59766 0.57364 
0.52941 0.23744 0.60122 0.57663 
0.53333 0.24043 0.60478 0.57962 
0.53725 0.24345 0.60834 0.58260 
0.54118 0.24648 0.61189 0.58557 
0.54510 0.24952 0.61543 0.58854 
0.54902 0.25258 0.61897 0.59150 
0.55294 0.25565 0.62251 0.59445 
0.55686 0.25874 0.62603 0.59740 
0.56078 0.26185 0.62956 0.60034 
0.56471 0.26497 0.63308 0.60328 
0.56863 0.26811 0.63659 0.60621 
0.57255 0.27126 0.64010 0.60913 
0.57647 0.27442 0.64361 0.61205 
0.58039 0.27760 0.64711 0.61496 
0.58431 0.28080 0.65060 0.61787 
0.58824 0.28401 0.65410 0.62077 
0.59216 0.28724 0.65758 0.62366 
0.59608 0.29048 0.66106 0.62655 
0.60000 0.29373 0.66454 0.62943 
0.60392 0.29701 0.66801 0.63231 
0.60784 0.30029 0.67148 0.63518 
0.61176 0.30359 0.67494 0.63805 
0.61569 0.30691 0.67840 0.64091 
0.61961 0.31024 0.68186 0.64376 
0.62353 0.31358 0.68531 0.64661 
0.62745 0.31694 0.68875 0.64945 
0.63137 0.32032 0.69220 0.65229 
0.63529 0.32371 0.69563 0.65513 
0.63922 0.32711 0.69907 0.65795 
0.64314 0.33053 0.70249 0.66078 
0.64706 0.33397 0.70592 0.66360 
0.65098 0.33741 0.70934 0.66641 
0.65490 0.34088 0.71276 0.66922 
0.65882 0.34435 0.71617 0.67202 
0.66275 0.34785 0.71958 0.67482 
0.66667 0.35135 0.72298 0.67761 
0.67059 0.35487 0.72638 0.68040 
0.67451 0.35841 0.72978 0.68318 
0.67843 0.36196 0.73317 0.68596 
0.68235 0.36552 0.73656 0.68873 
0.68627 0.36910 0.73994 0.69150 
0.69020 0.37269 0.74332 0.69426 
0.69412 0.37630 0.74670 0.69702 
0.69804 0.37992 0.75007 0.69977 
0.70196 0.38356 0.75344 0.70252 
0.70588 0.38721 0.75681 0.70527 
0.70980 0.39087 0.76017 0.70801 
0.71373 0.39455 0.76353 0.71075 
0.71765 0.39824 0.76688 0.71348 
0.72157 0.40195 0.77023 0.71620 
0.72549 0.40567 0.77358 0.71893 
0.72941 0.40940 0.77692 0.72164 
0.73333 0.41315 0.78026 0.72436 
0.73725 0.41692 0.78360 0.72707 
0.74118 0.42069 0.78693 0.72977 
0.74510 0.42448 0.79026 0.73247 
0.74902 0.42829 0.79359 0.73517 
0.75294 0.43211 0.79691 0.73786 
0.75686 0.43594 0.80023 0.74055 
0.76078 0.43979 0.80354 0.74323 
0.76471 0.44365 0.80686 0.74591 
0.76863 0.44752 0.81016 0.74859 
0.77255 0.45141 0.81347 0.75126 
0.77647 0.45531 0.81677 0.75393 
0.78039 0.45923 0.82007 0.75659 
0.78431 0.46316 0.82336 0.75925 
0.78824 0.46710 0.82666 0.76191 
0.79216 0.47106 0.82994 0.76456 
0.79608 0.47503 0.83323 0.76721 
0.80000 0.47902 0.83651 0.76985 
0.80392 0.48302 0.83979 0.77249 
0.80784 0.48703 0.84307 0.77512 
0.81176 0.49105 0.84634 0.77776 
0.81569 0.49509 0.84961 0.78038 
0.81961 0.49915 0.85287 0.78301 
0.82353 0.50321 0.85614 0.78563 
0.82745 0.50729 0.85940 0.78825 
0.83137 0.51139 0.86265 0.79086 
0.83529 0.51550 0.86591 0.79347 
0.83922 0.51962 0.86916 0.79608 
0.84314 0.52375 0.87241 0.79868 
0.84706 0.52790 0.87565 0.80128 
0.85098 0.53206 0.87889 0.80387 
0.85490 0.53624 0.88213 0.80646 
0.85882 0.54042 0.88537 0.80905 
0.86275 0.54463 0.88860 0.81163 
0.86667 0.54884 0.89183 0.81421 
0.87059 0.55307 0.89506 0.81679 
0.87451 0.55731 0.89828 0.81937 
0.87843 0.56157 0.90150 0.82194 
0.88235 0.56584 0.90472 0.82450 
0.88627 0.57012 0.90793 0.82707 
0.89020 0.57441 0.91115 0.82963 
0.89412 0.57872 0.91436 0.83218 
0.89804 0.58304 0.91756 0.83474 
0.90196 0.58738 0.92077 0.83729 
0.90588 0.59173 0.92397 0.83983 
0.90980 0.59609 0.92717 0.84238 
0.91373 0.60046 0.93036 0.84492 
0.91765 0.60485 0.93356 0.84745 
0.92157 0.60925 0.93675 0.84999 
0.92549 0.61366 0.93993 0.85252 
0.92941 0.61809 0.94312 0.85504 
0.93333 0.62253 0.94630 0.85757 
0.93725 0.62698 0.94948 0.86009 
0.94118 0.63145 0.95266 0.86261 
0.94510 0.63593 0.95583 0.86512 
0.94902 0.64042 0.95900 0.86763 
0.95294 0.64493 0.96217 0.87014 
0.95686 0.64945 0.96534 0.87264 
0.96078 0.65398 0.96850 0.87515 
0.96471 0.65852 0.97166 0.87765 
0.96863 0.66308 0.97482 0.88014 
0.97255 0.66765 0.97798 0.88263 
0.97647 0.67223 0.98113 0.88512 
0.98039 0.67683 0.98428 0.88761 
0.98431 0.68144 0.98743 0.89009 
0.98824 0.68606 0.99058 0.89258 
0.99216 0.69069 0.99372 0.89505 
0.99608 0.69534 0.99686 0.89753 
1.0000 0.70000 1.0000 0.90000 
END_DATA
